img/icon-tel.svg

<svg width="24" height="24" viewBox="0 0 24 24" fill="none" xmlns="http://www.w3.org/2000/svg">
<path d="M18.4431 23.9998C13.5536 23.9934 8.86624 22.0444 5.40886 18.5802C1.95148 15.1159 0.00633762 10.4192 0 5.52006C0 4.05608 0.580409 2.65207 1.61354 1.61688C2.64668 0.581699 4.04791 0.000137152 5.50898 0.000137152C5.81837 -0.00222417 6.12724 0.0259108 6.43114 0.0841358C6.72492 0.127696 7.01373 0.200042 7.29341 0.300133C7.49012 0.369287 7.6654 0.48869 7.80193 0.646534C7.93845 0.804379 8.0315 0.995197 8.07185 1.20012L9.71257 8.40001C9.7568 8.59545 9.75147 8.79886 9.69708 8.99171C9.64269 9.18455 9.54097 9.36067 9.4012 9.504C9.24551 9.672 9.23353 9.684 7.76048 10.452C8.94011 13.045 11.0098 15.1273 13.5928 16.3199C14.3713 14.8319 14.3832 14.8199 14.5509 14.6639C14.6939 14.5239 14.8697 14.4219 15.0622 14.3674C15.2546 14.313 15.4576 14.3076 15.6527 14.3519L22.8383 15.9959C23.0363 16.0419 23.2193 16.1377 23.3702 16.2741C23.521 16.4106 23.6347 16.5833 23.7006 16.7759C23.8017 17.0607 23.8778 17.3538 23.9281 17.6519C23.9763 17.9535 24.0004 18.2584 24 18.5639C23.9779 20.0216 23.3812 21.4113 22.3401 22.4298C21.299 23.4482 19.898 24.0126 18.4431 23.9998ZM5.50898 2.4001C4.68413 2.40326 3.89396 2.73299 3.3107 3.31741C2.72743 3.90183 2.39836 4.69357 2.39521 5.52006C2.39838 9.7837 4.09016 13.8718 7.09903 16.8867C10.1079 19.9015 14.1879 21.5966 18.4431 21.5998C19.268 21.5967 20.0581 21.2669 20.6414 20.6825C21.2247 20.0981 21.5537 19.3064 21.5569 18.4799C21.5569 18.3479 21.5569 18.2159 21.5569 18.0839L16 16.7999L15.6527 17.4599C15.1138 18.5039 14.7186 19.2599 13.7126 18.8519C11.728 18.1401 9.92658 16.9943 8.4392 15.4978C6.95182 14.0012 5.81583 12.1915 5.11377 10.2C4.68263 9.264 5.497 8.83201 6.52694 8.29202L7.18563 7.96802L5.90419 2.4001H5.50898Z" fill="#F5F4F6"/>
</svg>

<svg width="24" height="24" fill="none" xmlns="http://www.w3.org/2000/svg"><path d="M18.443 24A18.449 18.449 0 015.41 18.58 18.523 18.523 0 010 5.52c0-1.464.58-2.868 1.614-3.903A5.503 5.503 0 015.509 0c.31-.002.618.026.922.084.294.044.583.116.862.216a1.198 1.198 0 01.779.9l1.64 7.2a1.202 1.202 0 01-.31 1.104c-.156.168-.168.18-1.642.948a11.88 11.88 0 005.833 5.868c.778-1.488.79-1.5.958-1.656a1.197 1.197 0 011.102-.312l7.185 1.644a1.197 1.197 0 01.863.78A5.21 5.21 0 0124 18.564a5.525 5.525 0 01-1.66 3.866A5.504 5.504 0 0118.443 24zM5.51 2.4a3.123 3.123 0 00-2.198.917 3.135 3.135 0 00-.916 2.203A16.108 16.108 0 007.1 16.887 16.044 16.044 0 0018.443 21.6a3.122 3.122 0 002.198-.918 3.135 3.135 0 00.916-2.202v-.396L16 16.8l-.347.66c-.54 1.044-.934 1.8-1.94 1.392a14.19 14.19 0 01-5.274-3.354A14.224 14.224 0 015.114 10.2c-.431-.936.383-1.368 1.413-1.908l.659-.324L5.904 2.4H5.51z" fill="#F5F4F6"/></svg>
